X:50
T:Mentra Gwen (British Harmony No.32)
T:50 "Autodiad 1 Mentra Gwen" lower staff
O:Wales
B:British Harmony, No.32.
S:Cass Meurig's article "Singing to Fiddle
S:playing in the 18th Century" in
S:Canu Gwerin (Folk Song) No.24 2001 pp 20-41,
S:Cymdeithas Alawon Gwerin Cymru, ISSN 0967-0559.
F:mudcat.org/thred.cfmthreadid=70693
Z:transcribed by davidkidd.net July 2004
M:4/4
L:1/4
Q:130
K:C
E|ABcA|d2cB|c2 BA|^G3E|
ABcA|d2cd|e3||c/d/|edef|gezc|
dcBc|dBzB|AcBA|A^Gze|
aeec|dfed|c2cB|A3|]
W:Y fwyn garedig ferch, mentra Gwen, mentra Gwen,
W:Lie rhoddias i fy serch, mentra Gwen;
W:Gwaith dyn wyf fi mewn galar,
W:Yn ffacia cerdded daear,
W:O'th gariad di'r fun hawddgar;
W:Rwy'n deisyf cael dy ffafar, mentra Gwen, mentra Gwen.
%see 43GwPw
